X: 713
M: C|
L: 1/8
K: G
V: 1
|:\
d2g2 d2BA | G4 D4 | G2g2 d2cB | fga2 A3B |\
|:\
V: 2 clef=bass middle=d
|:\
e4 b2g2 | a4 g2f2 | g4 d4 | G4 z4 :|
|:\
z4 e2f2 | g2d2 B2G2 | z2g2 a2z2 | d2f2 a2d'2 |\
g2b2 a2f2 | d6 f2 | g2c2 d2D2 | G4- G4 |]

